X: 102
T: Biaulx parle tousjours
N: Derived from Mar3001-Biaulx_parle_tousjours.krn
C: Johannes Martini
%%abc-version 2.0
%%abcx-abcm2ps-target-version 5.9.1 (29 Sep 2008)
%%abc-creator hum2abc beta
%%abcx-conversion-date 2019/02/17 07:19:43
%%abc-edited-by Jesse Rodin
%%abc-edited-by Chris Gage 10-30-2014
%%abcx-initial-encoding-date 2015/02/26/
%%humdrum-veritas 2441635290
%%humdrum-veritas-data 2710998704
%%linebreak <none>
%%barnumbers 0
L: 1/4
M: 2/1
Q: 1/2=120
V: 1 clef=treble
V: 2 clef=treble-8
V: 3 clef=bass
K: F
[V:1] z8 | 
[V:2] z8 | 
[V:3] G,,8 | 
[V:1] z8 | 
[V:2] z8 | 
[V:3] F,,4G,,2B,,2- | 
[V:1] z8 | 
[V:2] G6FE | 
[V:3] B,,2G,,2B,,2C,2 | 
[V:1] z8 | 
[V:2] F4G2B2- | 
[V:3] D,4B,,4 | 
[V:1] G6FE | 
[V:2] B2G2B2c2 | 
[V:3] G,,2G,4F,E, | 
[V:1] F4G2B2- | 
[V:2] d4B4 | 
[V:3] D,4z2G,,2 | 
[V:1] B2G2B2c2 | 
[V:2] G4z2A2 | 
[V:3] B,,2C,2G,,2z2 | 
[V:1] d4B4 | 
[V:2] B2G3FED | 
[V:3] G,2B,3A,G,F, | 
[V:1] G4z2A2 | 
[V:2] E4D4 | 
[V:3] G,2C,2F,4 | 
[V:1] B2G3FED | 
[V:2] G4c4- | 
[V:3] z2_E,3D,C,B,, | 
[V:1] E4D4 | 
[V:2] c2BAB2A2 | 
[V:3] C,4G,,3A,, | 
[V:1] G4c4- | 
[V:2] G6FE | 
[V:3] B,,2C,3B,,A,,G,, | 
[V:1] c2BAB2A2 | 
[V:2] F4G2A2 | 
[V:3] A,,4G,,2D,2 | 
[V:1] G6FE | 
[V:2] B2c3BAG | 
[V:3] G,2C,3D,E,2 | 
[V:1] F4G4 | 
[V:2] A4G2B2 | 
[V:3] D,4z2G,,2 | 
[V:1] E2F3EDC | 
[V:2] c2A4F2 | 
[V:3] A,,2D,3C,D,2 | 
[V:1] B,4D2F2 | 
[V:2] G2FED4 | 
[V:3] G,,3A,,B,,C,D,2 | 
[V:1] G2E4C2 | 
[V:2] z2G4A2 | 
[V:3] E,2C,3B,,A,,2 | 
[V:1] D2CB,A,4 | 
[V:2] B2G4^F2 | 
[V:3] G,,4D,4 | 
[V:1] z8 | 
[V:2] GABcd2c2 | 
[V:3] z2G,4A,2 | 
[V:1] z8 | 
[V:2] G2B2A4 | 
[V:3] B,2G,4^F,2 | 
[V:1] z2G4A2 | 
[V:2] G2B3AF2 | 
[V:3] G,3F,E,2D,2 | 
[V:1] B2G4^F2 | 
[V:2] G2E2D4 | 
[V:3] G,4A,4 | 
[V:1] G2B3AF2 | 
[V:2] z2d2G2d2- | 
[V:3] G,2G,3F,D,2 | 
[V:1] G2E2D2F2- | 
[V:2] d2c2d2B2 | 
[V:3] G,2A,2D,4 | 
[V:1] F2E4D2- | 
[V:2] A3GA2F2 | 
[V:3] z2A,,2C,2D,2 | 
[V:1] D2^C2D4 | 
[V:2] E4D4- | 
[V:3] A,,4z2A,2- | 
[V:1] z2A,2B,2C2 | 
[V:2] D4z4 | 
[V:3] A,2F,2G,2E,2 | 
[V:1] D2F4E2 | 
[V:2] z2A2B2c2 | 
[V:3] D,6C,2 | 
[V:1] D2CB,C4 | 
[V:2] d2f4e2 | 
[V:3] B,,4z4 | 
[V:1] z2G4FE | 
[V:2] d2cBc4 | 
[V:3] z4z2A,,2 | 
[V:1] D4z4 | 
[V:2] B2AGF2c2 | 
[V:3] B,,2C,2D,2F,2- | 
[V:1] z8 | 
[V:2] d2c3BB2- | 
[V:3] F,2E,2D,2C,B,, | 
[V:1] z2c2d2c2- | 
[V:2] B2A2B2A2 | 
[V:3] C,4B,,2F,2 | 
[V:1] cBB4A2 | 
[V:2] B4c4 | 
[V:3] G,2D,2E,2F,2 | 
[V:1] B3AF2A2 | 
[V:2] B4z2d2- | 
[V:3] B,,2G,2A,2F,2 | 
[V:1] B2c2A3G | 
[V:2] d2c2d4 | 
[V:3] G,2A,2D,2F,2 | 
[V:1] E2G2A2B2 | 
[V:2] z2c4B2 | 
[V:3] G,2E,2F,2G,2 | 
[V:1] G3FD2F2 | 
[V:2] c4z2B2- | 
[V:3] C,2E,2F,2D,2 | 
[V:1] G2A2F3E | 
[V:2] B2A2B2c2- | 
[V:3] E,2F,2B,,2F,2- | 
[V:1] C2F2G2B2- | 
[V:2] c2d2e2d2- | 
[V:3] F,E,D,2C,2B,,2 | 
[V:1] BAA4G2 | 
[V:2] d2c2B4 | 
[V:3] F,4G,4 | 
[V:1] A8 | 
[V:2] A8 | 
[V:3] [M:2/1](3:2:5D,4C,2D,2E,2F,2 | 
[V:1] D8 | 
[V:2] B8 | 
[V:3] (3:2:4G,4F,2E,2D,4 | 
[V:1] E8 | 
[V:2] c8 | 
[V:3] (3:2:4C,4A,,2B,,2C,4 | 
[V:1] F4E2D2- | 
[V:2] A4G2B2- | 
[V:3] [M:2/1]D,2F,2C,2B,,A,, | 
[V:1] D2CB,A,2C2 | 
[V:2] B2AGF2E2 | 
[V:3] G,,4z2A,,2 | 
[V:1] D2F4EF | 
[V:2] D4z2A2 | 
[V:3] B,,2D,3B,,C,2 | 
[V:1] GFEDE4 | 
[V:2] B2d3Bc2 | 
[V:3] G,,2B,,2A,,4 | 
[V:1] D4z4 | 
[V:2] G2B2A2G2- | 
[V:3] z2G,,2F,,2G,,2 | 
[V:1] z2A2B2d2- | 
[V:2] G2^F2G2B2- | 
[V:3] A,,4G,,2G,2- | 
[V:1] dBc2G2B2 | 
[V:2] B2A2B2d2- | 
[V:3] G,2F,2G,2D,2 | 
[V:1] A2G4^F2 | 
[V:2] dcB2A4 | 
[V:3] F,2G,2D,4 | 
[V:1] G8- | 
[V:2] G8- | 
[V:3] (3:2:5_E,2D,2C,2B,,2C,4 | 
[V:1] G8 |]  
[V:2] G8 |]  
[V:3] G,,8 |]  



